X:46
T:MacLaine of Loch Buie's *NEW!* Requested by Tony Upton
R:Reel
O:Scotland
M:2/2
C:Traditional-Natalie MacMaster, Ashley MacIsaac
K:A maj.
B|e2 de A/2A/2A Af|=g2 fe d=GBd|e2 ef aece|=g2 dB A/2A/2A A:|\
B|Aa=gb ecAc|Bd=ge dB=GB|Aa=gb ecAc|dB=GB A/2A/2A/2 AB|
Aa=gb ecAc|Bd=ge dB=GB|ABcd ecbf|ecdB A/2A/2A A:||
